X: 1
T: Sal's Got Mud Between Her Toes
S: arr. Wendy ANthony (in TEFview samples)
R: reel
Z: 2018 John Chambers <jc:trillian.mit.edu>
M: C|
L: 1/8
K: D
|: FF |:\
"D"A2A2 FEDE | F2A2 A2zA | B2A2 FEDE |1,3 "A7"F2E2 E2zF :|2,4 "A7"E2D2 "D"D2 :|
|: AB |\
"D"d2d2 BAFA | d2d2 f4 | f3a fede | "A7"f2e2 e2de |\
"D"f2a2 fed2 | "G"B2d2 B2zB | "D"d2B2 AFEF | "A7"E2D2 "D"D2 :|
|: A,B, |:\
"D"D2D2 DB,A,B, | D2D2 F4 | FED2 B,2A,2 |1,3 B,A,B,C D4 :|2,4 "A7"B,A,B,C "D"D2 :|
